X:21
T:Manchester Hornpipe
M:4/4
K:D
(3ABc|dcdA FAdf|edcB A2fg|afaf bagf|edcB A2fe|dcdA FAdf|edcB A2fg|
afdf (3gag ec|d2f2d2::fg|afaf dfaf|bgbg efge|afaf bagf|
(3efe (3dcB A2fe|dcdA FAdf|edcB A2fg|afdf (3gag ec|d2f2d2:|

